dist/svg/static/climate-small.svg

<svg xmlns="http://www.w3.org/2000/svg" width="24" height="24" viewBox="0 0 24 24"><g fill="none" stroke="currentColor"><path d="M11.993 9.019c-1.7 0-3 1.3-3 3s1.3 3 3 3 3-1.3 3-3-1.3-3-3-3zM14.675 13.621c.166-.14.718-.302.718-.302s3.2-.7 5.4 1.4c2.2 2.1.6 4.8-.9 6.3s-5.5 3-5.4-7.1c0 0 .016-.158.182-.298zM10.593 14.919c-10.1-.1-9.1 3.9-7.6 5.4s4.3 2.9 6.4.7c1.3-1.5 2-3.5 1.7-5.4l-.2-.7h-.3zM13.393 9.019c-.2-.9-.4-4.2 1.3-5.9 2.2-2.1 5.2-.8 6.7.7 1.8 1.8 3.8 5.2-6.4 5.2h-1.6M9.037 10.789l.056-.77c.1-10.1-3.3-8.4-4.6-7.1-1.5 1.5-2.8 4.5-.7 6.6 1.4 1.2 3.2 1.7 5 1.5l.244-.23z"/></g></svg>

<?xml version="1.0" encoding="UTF-8" standalone="no"?>
<svg width="24px" height="24px" viewBox="0 0 24 24" version="1.1" xmlns="http://www.w3.org/2000/svg" xmlns:xlink="http://www.w3.org/1999/xlink">
    <!-- Generator: sketchtool 46.2 (44496) - http://www.bohemiancoding.com/sketch -->
    <title>climate-small</title>
    <desc>Created with sketchtool.</desc>
    <defs></defs>
    <g id="icons-published" stroke="none" stroke-width="1" fill="none" fill-rule="evenodd">
        <g id="briefing" transform="translate(-3524.000000, -282.000000)"></g>
        <g id="climate-small" stroke="#000000">
            <path d="M12,9 C10.3,9 9,10.3 9,12 C9,13.7 10.3,15 12,15 C13.7,15 15,13.7 15,12 C15,10.3 13.7,9 12,9 Z M14.7,13.6 C14.9,13.5 15.4,13.3 15.4,13.3 C15.4,13.3 18.6,12.6 20.8,14.7 C23,16.8 21.4,19.5 19.9,21 C18.4,22.5 14.4,24 14.5,13.9 C14.5,13.9 14.5,13.8 14.7,13.6 Z M10.6,14.9 C0.5,14.8 1.5,18.8 3,20.3 C4.5,21.8 7.3,23.2 9.4,21 C10.7,19.5 11.4,17.5 11.1,15.6 L10.9,14.9 C10.9,14.9 10.6,14.9 10.6,14.9 Z M13.4,9 C13.2,8.1 13,4.8 14.7,3.1 C16.9,1 19.9,2.3 21.4,3.8 C23.2,5.6 25.2,9 15,9 L13.4,9 L13.4,9 Z M9,10.8 L9.1,10 C9.2,-0.1 5.8,1.6 4.5,2.9 C3,4.4 1.7,7.4 3.8,9.5 C5.2,10.7 7,11.2 8.8,11 L9,10.8 Z" id="Shape"></path>
        </g>
    </g>
</svg>
